X:7846
T:Den skyldige
T:The guilty
C:anon.
O:Norway
N:The title is from a song by Alf Pr\oysen. I don't know the original title of the tune.
R:Hambo
Z:Transcribed by Frank Nordberg - http://www.musicaviva.com
F:http://abc.musicaviva.com/tunes/norway/den-skyldige/den-skyldige-1.abc
M:3/4
L:1/8
K:Dm
zA, DF|"Dm"A2 BA "Gm7"GB|"Dm"A2 GF "Gm"GA|"Dm"FF ED "A7"EF|"Dm"D2 z A, DF|
"Dm"A2 AG AG|"A7"A2 ^cc "Dm"dd|"F"c2 AA "C7"GG|"F"A2 zA AG|
"A7"A2 ^cc  "Bbmaj7"dd|"F"c2 AA cd|"Gm7"BB AF AA|"A7"G2 zF DF|
"Dm"A2 BA "Gm"GB|"Dm"A2 GF "Gm"GA|"Dm"F2 ED "A7"EE|"Dm"D2|]
W:
W:
W:  From Musica Viva - http://www.musicaviva.com
W:  the Internet center for free sheet music downloads.
